;FLAVOR:Marlin
;TIME:51182
;Filament used: 92.8956m
;Layer height: 0.452548
;Setting summary:
;  CATEGORY: BlackBelt
;    Belt Wall Speed: 10
;    Enable Secondary Print Fans: True
;    Secondary Print Fan Speed: 50
;  CATEGORY: Machine
;    End G-code: [not shown for brevity]
;    Material GUID: 3ed31896-4698-404e-9960-8daebc05885a
;    Diameter: 1.75
;    Machine Width: 155
;    Machine Height: 100
;    Number of Extruders that are enabled: 1
;    Machine head & Fan polygon: [[-20, 10], [-20, -10], [10, 10], [10, -10]]
;    Nozzle Diameter: 0.4
;    Gantry Angle: 45
;  CATEGORY: Quality
;    Layer Height: 0.32
;  CATEGORY: Shell
;    Wall Thickness: 2
;    Bottom Thickness: 1.6
;  CATEGORY: Infill
;    Infill Density: 0
;    Minimum Infill Area: 5
;  CATEGORY: Material
;    Default Printing Temperature: 210
;    Printing Temperature: 215
;    Default Build Plate Temperature: 70
;    Flow: 100
;    Retraction Distance: 7
;    Retraction Speed: 65
;    Retraction Extra Prime Amount: 0
;    Standby Temperature: 160
;  CATEGORY: Speed
;  CATEGORY: Travel
;  CATEGORY: Cooling
;    Fan Speed: 65
;  CATEGORY: Support
;    Support Overhang Angle: 80
;  CATEGORY: Build Plate Adhesion
;  CATEGORY: Dual Extrusion
;  CATEGORY: Mesh Fixes
;  CATEGORY: Special Modes
;  CATEGORY: Experimental
;    Enable Coasting: True
;    Coasting Speed: 70
;  CATEGORY: Command Line Settings
;BLACKBELTPROCESSED
;Generated with Cura_SteamEngine 3.6.0
M140 S70
M105
M190 S70
M104 S215
M105
M109 S215
M82 ;absolute extrusion mode
;start code BLACKBELT 3D Printer 3.6.2.2

G90                             ; Set to Absolute Positioning
M82                             ; Set extruder to absolute mode
G21                             ; Metric values
G92 X0 Y0 Z0 E0                 ; Set all axis to 0

;home X and move Y dow
G1 Y2                           ; Move Y axis off the bed
G28                             ; Home X and move Y down
G1 Y5                           ; Move Y axis up to prevent grinding on the belt
G1 X170 Z5 F4000                ; Move X to the center
M400                            ; Wait for this move to finish

;probe Y
M908 P5 S10                     ; Setting the motor current of the Y1 motor off
M908 P1 S10                     ; Setting the motor current of the Y2 motor off
G1 Y20 G3000                    ; Move Y up
M400                            ; Wait for current moves to finish
M908 P5 S20                     ; Setting the motor current of the Y1 motor very low
M908 P1 S20                     ; Setting the motor current of the Y2 motor off
G1 Y0 F500                      ; Move Y down into the belt
M400                            ; Wait for current moves to finish
M908 P5 S140                    ; Setting the motor current of the Y1 motor to normal
M908 P1 S140                    ; Setting the motor current of the Y2 motor to normal
G92 Y-0.1536

;purge
G1 Y3                           ; Move Y axis off the bed
G1 E15                          ; Extruder 15mm material and move to the side
G1 Z10 E20 F500                 ; Move belt 10mm and keep extruding
G1 Z30                          ; Move the belt a bit further without extruding
G92 Z0                          ; Zero Belt
G92 E0                          ; Zero the extruded length
G1 E-3 F3900                    ; Retract 3mm at 65mm/s

;prepare printing
G92 E-4.5                       ; Add 1.5mm start distance
M117 BLACKBELT Printing...

;˅˅˅˅˅˅˅˅˅˅˅˅˅˅˅˅ - copy from here / paste codes just under here - ˅˅˅˅˅˅˅˅˅˅˅˅˅˅˅˅

M107                            ; Start with the fan off

G92 E0
G1 F3900 E-7
;LAYER_COUNT:1343
;LAYER:0
M107
M203 Z30
;MESH:WRENCH3.stl
G0 F7200 X77.146 Y0.2 Z0.64
;TYPE:WALL-OUTER
G1 F3900 E0
G1 F300 X77.86 Y0.2 E0.102591 ; Adjusted E for belt wall
G92 E0.113990 ; Reset E to pre-compensated value
G1 X77.503 Y0.251 E0.17156
G1 X77.287 Y0.22 E0.2064
G0 F210 X77.146 Y0.2
G0 F7200 X77.346 Y0.2
;MESH:NONMESH
G0 X77.371 Y0.6
;TIME_ELAPSED:6.287398
;LAYER:1
M140 S70
M106 P1 S16
M106 S33.2
;MESH:WRENCH3.stl
G0 F7650 X77.371 Y0.6 Z1.093
;TYPE:WALL-INNER
G1 F3900 E0.22923
G1 F733.3 X77.635 Y0.6 E0.24329
G1 X77.503 Y0.619 E0.2504
G1 X77.423 Y0.607 E0.25471
G0 F513.3 X77.371 Y0.6
G1 F3900 E-6.74529
G0 F7650 X71.744 Y0.2
;TYPE:WALL-OUTER
G1 F3900 E0.25753
G1 F600 X83.261 Y0.2 E0.809680 ; Adjusted E for belt wall
G92 E0.871030 ; Reset E to pre-compensated value
G1 X77.503 Y1.023 E1.18087
G1 X74.046 Y0.529 E1.3669
G0 F420 X71.744 Y0.2
G0 F7650 X71.944 Y0.2
G1 F3900 E-5.6331
;MESH:NONMESH
G0 F7650 X72.884 Y0.6
;TIME_ELAPSED:9.502227
;LAYER:2
M106 P1 S33
M106 S66.3
;MESH:WRENCH3.stl
G0 F8100 X72.884 Y0.6 Z1.546
;TYPE:WALL-INNER
G1 F3900 E1.4908
G1 F771.4 X82.119 Y0.6 E1.98274
G1 X77.503 Y1.26 E2.23114
G1 X74.729 Y0.863 E2.38041
G0 F540 X72.884 Y0.6
G1 F3900 E-4.61959
G0 F8100 X67.255 Y0.2
;TYPE:WALL-OUTER
G1 F3900 E2.4797
G1 F600 X87.744 Y0.2 E3.461996 ; Adjusted E for belt wall
G92 E3.571140 ; Reset E to pre-compensated value
G1 X77.503 Y1.664 E4.12222
G1 X71.351 Y0.785 E4.45326
G0 F420 X67.255 Y0.2
G0 F8100 X67.455 Y0.2
G1 F3900 E-2.54674
;MESH:NONMESH
G0 F8100 X74.025 Y1
;TIME_ELAPSED:16.322522
;LAYER:3
M106 P1 S49
M106 S99.5
;MESH:WRENCH3.stl
G0 F8550 X74.025 Y1 Z1.999
;TYPE:WALL-INNER
G1 F3900 E4.67369
G1 F789.5 X80.978 Y1 E5.04407
G1 X77.503 Y1.497 E5.23106
G1 X75.415 Y1.198 E5.34342
G0 F552.6 X74.025 Y1
G1 F3900 E-1.65658
G0 F8550 X68.397 Y0.6
G1 F3900 E5.41821
G1 F789.5 X86.603 Y0.6 E6.38804
G1 X77.503 Y1.901 E6.87771
G1 X72.037 Y1.12 E7.17184
G0 F552.6 X68.397 Y0.6
G1 F3900 E0.17184
G0 F8550 X64.979 Y0.2
;TYPE:WALL-OUTER
G1 F3900 E7.36771
G1 F600 X90.025 Y0.2 E8.568481 ; Adjusted E for belt wall
G92 E8.701900 ; Reset E to pre-compensated value
G1 X88.968 Y0.666 E8.76343
G1 X77.503 Y2.305 E9.38037
G1 X69.934 Y1.223 E9.78767
G0 F420 X66.037 Y0.667
G0 X64.979 Y0.2
G0 F8550 X65.179 Y0.2
G1 F3900 E2.78767
;MESH:NONMESH
G0 F8550 X75.166 Y1.4
;TIME_ELAPSED:27.055551
;LAYER:4
M106 P1 S66
M106 S132.6
;MESH:WRENCH3.stl
G0 F9000 X75.166 Y1.4 Z2.452
;TYPE:WALL-INNER
G1 F3900 E10.05897
G1 F1042.3 X79.838 Y1.4 E10.30784
G1 X77.503 Y1.734 E10.43349
G1 X76.099 Y1.533 E10.50905
G0 F729.6 X75.166 Y1.4
G1 F3900 E3.50905
G0 F9000 X69.537 Y1
G1 F3900 E10.55928
G1 F1042.3 X85.464 Y1 E11.4077
G1 X77.503 Y2.138 E11.83609
G1 X72.721 Y1.454 E12.09341
G0 F729.6 X69.537 Y1
G1 F3900 E5.09341
G0 F9000 X65.423 Y0.6
G1 F3900 E12.26473
G1 F1042.3 X89.58 Y0.6 E13.55156
G1 X88.858 Y0.919 E13.5936
G1 X77.503 Y2.542 E14.20462
G1 X70.216 Y1.501 E14.59674
G0 F729.6 X66.147 Y0.92
G0 X65.423 Y0.6
G1 F3900 E7.59674
G0 F9000 X63.525 Y0.2
;TYPE:WALL-OUTER
G1 F3900 E14.85786
G1 F600 ; Belt wall speed
G1 X91.479 Y0.2 E16.198041 ; Adjusted E for belt wall
G92 E16.346950 ; Reset E to pre-compensated value
G1 F781 ; Restored speed
G1 X88.968 Y1.307 E16.49314
G1 X77.503 Y2.946 E17.11008
G1 X68.781 Y1.7 E17.57941
G0 F547.2 X66.037 Y1.308
G0 X63.525 Y0.2
G0 F9000 X63.725 Y0.2
G1 F3900 E10.57941
;MESH:NONMESH
G0 F9000 X76.314 Y1.8
;TIME_ELAPSED:38.869880
;LAYER:5
M106 P1 S82
M106 S165.8
;MESH:WRENCH3.stl
G0 X76.314 Y1.8 Z2.905
;TYPE:WALL-INNER
G1 F3900 E17.8733
G1 F1389.3 X78.691 Y1.8 E17.99992
G1 X77.503 Y1.97 E18.06385
G1 X76.789 Y1.867 E18.10227
G0 F972.5 X76.314 Y1.8
G1 F3900 E11.10227
G0 F9000 X70.684 Y1.4
G1 F3900 E18.12784
G1 F1389.3 X84.318 Y1.4 E18.85412
G1 X77.503 Y2.374 E19.22084
G1 X73.409 Y1.789 E19.44114
G0 F972.5 X70.684 Y1.4
G1 F3900 E12.44114
G0 F9000 X65.868 Y1
G1 F3900 E19.58779
G1 F1389.3 X89.135 Y1 E20.8272
G1 X88.748 Y1.171 E20.84974
G1 X77.503 Y2.778 E21.45484
G1 X70.5 Y1.778 E21.83167
G0 F972.5 X66.257 Y1.172
G0 X65.868 Y1
G1 F3900 E14.83167
G0 F9000 X63.971 Y0.6
G1 F3900 E22.08268
G1 F1389.3 X91.033 Y0.6 E23.52425
G1 X88.858 Y1.559 E23.65087
G1 X77.503 Y3.182 E24.2619
G1 X69.254 Y2.003 E24.70578
G0 F972.5 X66.147 Y1.56
G0 X63.971 Y0.6
G1 F3900 E17.70578
G0 F9000 X62.072 Y0.2
;TYPE:WALL-OUTER
G1 F3900 E24.99967
G1 F600 ; Belt wall speed
G1 X92.933 Y0.2 E26.479216 ; Adjusted E for belt wall
G92 E26.643610 ; Reset E to pre-compensated value
G1 F1042 ; Restored speed
G1 X88.968 Y1.947 E26.87442
G1 X77.503 Y3.586 E27.49136
G1 X67.209 Y2.115 E28.04528
G0 F729.4 X66.037 Y1.948
G0 X62.072 Y0.2
G0 F9000 X62.272 Y0.2
G1 F3900 E21.04528
;MESH:NONMESH
G0 F9000 X71.825 Y1.8
;TIME_ELAPSED:50.923714
;LAYER:6
;MESH:WRENCH3.stl
G0 X71.825 Y1.8 Z3.358
;TYPE:WALL-INNER
G1 F3900 E28.33917
G1 F1785.5 X83.178 Y1.8 E28.94394
G1 X77.503 Y2.611 E29.24931
G1 X74.094 Y2.124 E29.43275
G0 F1249.8 X71.825 Y1.8
G1 F3900 E22.43275
G0 F9000 X66.313 Y1.4
G1 F3900 E29.55484
G1 F1785.5 X88.691 Y1.4 E30.7469
G1 X88.638 Y1.424 E30.75
G1 X77.503 Y3.015 E31.34918
G1 X70.784 Y2.055 E31.71073
G0 F1249.8 X66.369 Y1.425
G0 X66.313 Y1.4
G1 F3900 E24.71073
G0 F9000 X64.415 Y1
G1 F3900 E31.95156
G1 F1785.5 X90.589 Y1 E33.34584
G1 X88.748 Y1.812 E33.45302
G1 X77.503 Y3.419 E34.05812
G1 X69.557 Y2.284 E34.48569
G0 F1249.8 X66.257 Y1.813
G0 X64.415 Y1
G1 F3900 E27.48569
G0 F9000 X62.517 Y0.6
G1 F3900 E34.77052
G1 F1785.5 X92.488 Y0.6 E36.36706
G1 X88.858 Y2.2 E36.57838
G1 X77.503 Y3.823 E37.1894
G1 X67.681 Y2.42 E37.71792
G0 F1249.8 X66.147 Y2.201
G0 X62.517 Y0.6
G1 F3900 E30.71792
G0 F9000 X60.618 Y0.2
;TYPE:WALL-OUTER
G1 F3900 E38.01181
G1 F600 ; Belt wall speed
G1 X94.387 Y0.2 E39.630775 ; Adjusted E for belt wall
G92 E39.810660 ; Reset E to pre-compensated value
G1 F1339 ; Restored speed
G1 X88.968 Y2.588 E40.12611
G1 X77.503 Y4.227 E40.74305
G1 X66.037 Y2.589 E41.36004
G1 X65.666 Y2.425 E41.38165
G0 F937.4 X60.618 Y0.2
G0 F9000 X60.818 Y0.2
G1 F3900 E34.38165
G0 F9000 X77.313 Y2.19
;TYPE:SKIN
G1 F3900 E41.67554
G1 F1785.5 X77.693 Y2.19 E41.69578
G1 X77.503 Y2.217 E41.706
G1 X77.388 Y2.2 E41.71219
G0 F1249.8 X77.313 Y2.19
G1 F3900 E34.71219
;MESH:NONMESH
G0 F9000 X67.341 Y1.8
;TIME_ELAPSED:63.414619
;LAYER:7
;MESH:WRENCH3.stl
G0 X67.341 Y1.8 Z3.811
;TYPE:WALL-INNER
G1 F3900 E41.71624
G1 F2183 X87.658 Y1.8 E42.79851
G1 X77.503 Y3.252 E43.34497
G1 X71.402 Y2.38 E43.67327
G0 F1528.1 X67.341 Y1.8
G1 F3900 E36.67327
G0 F9000 X64.86 Y1.4
G1 F3900 E43.89183
G1 F2183 X90.143 Y1.4 E45.23864
G1 X88.638 Y2.064 E45.32626
G1 X77.503 Y3.656 E45.92545
G1 X69.84 Y2.561 E46.3378
G0 F1528.1 X66.367 Y2.065
G0 X64.86 Y1.4
G1 F3900 E39.3378
G0 F9000 X62.962 Y1
G1 F3900 E46.61246
G1 F2183 X92.042 Y1 E48.16153
G1 X88.748 Y2.452 E48.35329
G1 X77.503 Y4.06 E48.9584
G1 X68.153 Y2.724 E49.46152
G0 F1528.1 X66.257 Y2.453
G0 X62.962 Y1
G1 F3900 E42.46152
G0 F9000 X61.064 Y0.6
G1 F3900 E49.75541
G1 F2183 X93.941 Y0.6 E51.50674
G1 X88.858 Y2.84 E51.80264
G1 X77.503 Y4.464 E52.41367
G1 X66.147 Y2.841 E53.02474
G1 X66.112 Y2.825 E53.02679
G0 F1528.1 X61.064 Y0.6
G1 F3900 E46.02679
G0 F9000 X59.165 Y0.2
;TYPE:WALL-OUTER
G1 F3900 E53.32068
G1 F600 ; Belt wall speed
G1 X95.84 Y0.2 E55.078965 ; Adjusted E for belt wall
G92 E55.274330 ; Reset E to pre-compensated value
G1 F1637 ; Restored speed
G1 X88.968 Y3.228 E55.67436
G1 X77.503 Y4.868 E56.29131
G1 X66.037 Y3.229 E56.9083
G1 X64.213 Y2.425 E57.01449
G0 F1146.1 X59.165 Y0.2
G0 F9000 X59.365 Y0.2
G1 F3900 E50.01449
G0 F9000 X72.827 Y2.19
;TYPE:SKIN
G1 F3900 E57.30837
G1 F2183 X82.176 Y2.19 E57.80639
G1 X77.503 Y2.858 E58.05785
G1 X74.696 Y2.457 E58.20889
G0 F1528.1 X72.827 Y2.19
G1 F3900 E51.20889
;MESH:NONMESH
G0 F9000 X65.304 Y1.8
;TIME_ELAPSED:75.935273
;LAYER:8
;MESH:WRENCH3.stl
G0 X65.304 Y1.8 Z4.264
;TYPE:WALL-INNER
G1 F3900 E58.30946
G1 F2400 X89.699 Y1.8 E59.60897
G1 X88.528 Y2.317 E59.67716
G1 X77.503 Y3.892 E60.27041
G1 X70.123 Y2.838 E60.66753
G0 F1680 X66.477 Y2.318
G0 X65.304 Y1.8
G1 F3900 E53.66753
G0 F9000 X63.406 Y1.4
G1 F3900 E60.93201
G1 F2400 X91.597 Y1.4 E62.43373
G1 X88.638 Y2.705 E62.606
G1 X77.503 Y4.296 E63.20518
G1 X68.625 Y3.028 E63.6829
G0 F1680 X66.367 Y2.706
G0 X63.406 Y1.4
G1 F3900 E56.6829
G0 F9000 X61.508 Y1
G1 F3900 E63.97679
G1 F2400 X93.496 Y1 E65.68077
G1 X88.748 Y3.093 E65.95718
G1 X77.503 Y4.7 E66.56227
G1 X66.58 Y3.14 E67.15004
G0 F1680 X66.257 Y3.094
G0 X61.508 Y1
G1 F3900 E60.15004
G0 F9000 X59.61 Y0.6
G1 F3900 E67.44393
G1 F2400 X95.395 Y0.6 E69.35017
G1 X88.858 Y3.481 E69.73071
G1 X77.503 Y5.104 E70.34173
G1 X66.147 Y3.482 E70.9528
G1 X64.658 Y2.825 E71.03949
G0 F1680 X59.61 Y0.6
G1 F3900 E64.03949
G0 F9000 X57.711 Y0.2
;TYPE:WALL-OUTER
G1 F3900 E71.33338
G1 F600 ; Belt wall speed
G1 X97.294 Y0.2 E73.231084 ; Adjusted E for belt wall
G92 E73.441940 ; Reset E to pre-compensated value
G1 F1800 ; Restored speed
G1 X88.968 Y3.869 E73.92661
G1 X77.503 Y5.508 E74.54356
G1 X66.037 Y3.87 E75.16054
G1 X62.759 Y2.425 E75.35137
G0 F1260 X57.711 Y0.2
G0 F9000 X57.911 Y0.2
G1 F3900 E68.35137
G0 F9000 X68.339 Y2.19
;TYPE:SKIN
G1 F3900 E75.64526
G1 F2400 X73.941 Y2.19 E75.94367
G1 X77.503 Y2.699 E76.13535
G1 X81.063 Y2.19 E76.32691
G1 X86.66 Y2.19 E76.62506
G1 X77.503 Y3.498 E77.1178
G1 X73.801 Y2.969 E77.31701
G0 F1680 X68.339 Y2.19
G1 F3900 E70.31701
;MESH:NONMESH
G0 F9000 X63.85 Y1.8
;TIME_ELAPSED:88.923079
;LAYER:9
;MESH:WRENCH3.stl
G0 X63.85 Y1.8 Z4.717
;TYPE:WALL-INNER
G1 F3900 E77.61089
G1 F2400 X91.153 Y1.8 E79.06531
G1 X88.528 Y2.958 E79.21814
G1 X77.503 Y4.533 E79.8114
G1 X69.096 Y3.332 E80.26378
G0 F1680 X66.477 Y2.959
G0 X63.85 Y1.8
G1 F3900 E73.26378
G0 F9000 X61.952 Y1.4
G1 F3900 E80.55767
G1 F2400 X93.051 Y1.4 E82.21429
G1 X88.638 Y3.346 E82.47121
G1 X77.503 Y4.937 E83.07039
G1 X67.052 Y3.444 E83.63276
G0 F1680 X66.367 Y3.347
G0 X61.952 Y1.4
G1 F3900 E76.63276
G0 F9000 X60.054 Y1
G1 F3900 E83.92664
G1 F2400 X94.95 Y1 E85.78553
G1 X88.748 Y3.734 E86.14658
G1 X77.503 Y5.341 E86.75168
G1 X66.257 Y3.735 E87.35683
G1 X65.102 Y3.225 E87.42408
G0 F1680 X60.054 Y1
G1 F3900 E80.42408
G0 F9000 X58.156 Y0.6
G1 F3900 E87.71797
G1 F2400 X96.849 Y0.6 E89.77912
G1 X88.858 Y4.122 E90.24431
G1 X77.503 Y5.745 E90.85533
G1 X66.147 Y4.123 E91.46639
G1 X63.204 Y2.825 E91.63774
G0 F1680 X58.156 Y0.6
G1 F3900 E84.63774
G0 F9000 X56.257 Y0.2
;TYPE:WALL-OUTER
G1 F3900 E91.93162
G1 F600 ; Belt wall speed
G1 X98.748 Y0.2 E93.968743 ; Adjusted E for belt wall
G92 E94.195090 ; Reset E to pre-compensated value
G1 F1800 ; Restored speed
G1 X88.968 Y4.51 E94.76441
G1 X77.503 Y6.149 E95.38135
G1 X66.037 Y4.511 E95.99834
G1 X61.305 Y2.425 E96.27382
G0 F1260 X56.257 Y0.2
G0 F9000 X56.457 Y0.2
G1 F3900 E89.27382
G0 F9000 X65.701 Y2.19
;TYPE:SKIN
G1 F3900 E96.5677
G1 F2400 X69.454 Y2.19 E96.76762
G1 X77.503 Y3.34 E97.20074
G1 X85.546 Y2.19 E97.63354
G1 X89.302 Y2.19 E97.83362
G1 X88.418 Y2.58 E97.88509
G1 X77.503 Y4.139 E98.47243
G1 X71.09 Y3.223 E98.81751
G0 F1680 X66.587 Y2.581
G0 X65.701 Y2.19
G1 F3900 E91.81751
;MESH:NONMESH
G0 F9000 X62.397 Y1.8
;TIME_ELAPSED:102.959311
;LAYER:10
;MESH:WRENCH3.stl
G0 X62.397 Y1.8 Z5.17
;TYPE:WALL-INNER
G1 F3900 E99.1114
G1 F2400 X92.607 Y1.8 E100.72066
G1 X88.528 Y3.599 E100.95814
G1 X77.503 Y5.174 E101.5514
G1 X67.524 Y3.748 E102.08838
G0 F1680 X66.477 Y3.599
G0 X62.397 Y1.8
G1 F3900 E95.08838
G0 F9000 X60.499 Y1.4
G1 F3900 E102.38226
G1 F2400 X94.505 Y1.4 E104.19374
G1 X88.638 Y3.987 E104.5353
G1 X77.503 Y5.578 E105.13448
G1 X66.367 Y3.987 E105.73371
G1 X65.547 Y3.625 E105.78146
G0 F1680 X60.499 Y1.4
G1 F3900 E98.78146
G0 F9000 X58.6 Y1
G1 F3900 E106.07535
G1 F2400 X96.403 Y1 E108.08909
G1 X88.748 Y4.375 E108.53474
G1 X77.503 Y5.982 E109.13984
G1 X66.257 Y4.375 E109.74499
G1 X63.648 Y3.225 E109.89687
G0 F1680 X58.6 Y1
G1 F3900 E102.89687
G0 F9000 X56.701 Y0.6
G1 F3900 E110.19076
G1 F2400 X98.302 Y0.6 E112.40682
G1 X88.858 Y4.763 E112.9566
